public/about/wordpress.svg

<svg width="80" height="80" viewBox="0 0 80 80" fill="none" xmlns="http://www.w3.org/2000/svg">
<g clip-path="url(#clip0_132_470)">
<path fill-rule="evenodd" clip-rule="evenodd" d="M75.1 20.8086C75.272 22.0846 75.368 23.4479 75.368 24.9199C75.368 31.9519 74.716 32.3482 60.108 74.5762C72 67.6402 80 54.756 80 40C80 33.044 78.224 26.5046 75.1 20.8086ZM40.704 43.5L28.7 78.3711C36.8 80.7551 45.384 80.5123 53.284 77.7363C53.176 77.5643 53.08 77.3796 53 77.1836L40.704 43.5ZM67.004 37.9805C67.004 33.0365 65.228 29.6113 63.704 26.9473C61.68 23.6513 59.776 20.8644 59.776 17.5684C59.776 13.8924 62.568 10.4688 66.496 10.4688C66.672 10.4688 66.84 10.492 67.012 10.5C59.896 3.98 50.416 0 40 0C26.028 0 13.732 7.16734 6.58002 18.0273C9.12802 18.1073 12.548 18.1403 19.816 17.5723C21.972 17.4443 22.224 20.6113 20.072 20.8633C20.072 20.8633 17.904 21.12 15.492 21.248L30.06 64.5762L38.812 38.3203L32.58 21.2441C30.428 21.1201 28.388 20.8633 28.388 20.8633C26.232 20.7353 26.484 17.4404 28.64 17.5684C36.908 18.2044 41.14 18.2524 49.836 17.5684C51.992 17.4404 52.248 20.6073 50.092 20.8633C50.092 20.8633 47.92 21.1201 45.512 21.2441L59.968 64.2441C65.676 45.1721 67.004 41.9805 67.004 37.9805ZM0 40C0 55.832 9.20001 69.516 22.544 76L3.46399 23.7207C1.24399 28.6967 0 34.2 0 40Z" fill="#FE705A"/>
</g>
<defs>
<clipPath id="clip0_132_470">
<rect width="80" height="80" fill="white"/>
</clipPath>
</defs>
</svg>

<?xml version="1.0"?>
<svg width="80" height="80" xmlns="http://www.w3.org/2000/svg" xmlns:svg="http://www.w3.org/2000/svg">
 <defs>
  <clipPath id="clip0_132_470">
   <rect fill="white" height="80" id="svg_1" width="80"/>
  </clipPath>
 </defs>
 <g class="layer">
  <title>Layer 1</title>
  <g clip-path="url(#clip0_132_470)" id="svg_2">
   <path clip-rule="evenodd" d="m75.1,20.81c0.17,1.27 0.27,2.64 0.27,4.11c0,7.03 -0.65,7.43 -15.26,49.66c11.89,-6.94 19.89,-19.82 19.89,-34.58c0,-6.96 -1.78,-13.5 -4.9,-19.19zm-34.4,22.69l-12,34.87c8.1,2.39 16.68,2.14 24.58,-0.63c-0.1,-0.18 -0.2,-0.36 -0.28,-0.56l-12.3,-33.68zm26.3,-5.52c0,-4.94 -1.77,-8.37 -3.3,-11.03c-2.02,-3.3 -3.92,-6.09 -3.92,-9.38c0,-3.68 2.79,-7.1 6.72,-7.1c0.17,0 0.34,0.02 0.51,0.03c-7.11,-6.52 -16.59,-10.5 -27.01,-10.5c-13.97,0 -26.27,7.17 -33.42,18.03c2.55,0.08 5.97,0.11 13.24,-0.46c2.15,-0.13 2.4,3.04 0.25,3.29c0,0 -2.17,0.26 -4.58,0.39l14.57,43.33l8.75,-26.26l-6.23,-17.08c-2.15,-0.12 -4.19,-0.38 -4.19,-0.38c-2.16,-0.12 -1.91,-3.42 0.25,-3.29c8.27,0.63 12.5,0.68 21.2,0c2.15,-0.13 2.41,3.04 0.25,3.29c0,0 -2.17,0.26 -4.58,0.38l14.46,43c5.71,-19.07 7.03,-22.26 7.03,-26.26zm-67,2.02c0,15.83 9.2,29.52 22.54,36l-19.08,-52.28c-2.22,4.98 -3.46,10.48 -3.46,16.28z" fill="#3b82f6" fill-rule="evenodd" id="svg_3"/>
  </g>
 </g>
</svg>
